X: 93
T:Louise's New Parlor
% Nottingham Music Database
S:Mike Richardson 14.2.90, via PR
M:4/4
L:1/4
K:D
FE |"D"D2 FG|"F#"F2 ED|"G"G3/2G/2 Bd|"D"A3G|F3/2F/2 Ad|"Bm"gf ed|\
"Em"e3/2d/2 ef|"A"e2 de|
"D"f3/2f/2 dB|A2 FD|"G"G3/2G/2 Bd|"D"A3G|FA2F|"A"GE DC|"D"D2 "G"D3/2E/2|\
"D"D2 AG||
"D"F3/2F/2 AB|Azz=f|"D"f3/2f/2 dB|AzzG|"D"F3/2A/2 df|"Bm"ag fd|"Em"gf2d-|
"A"de fg|"D"a3/2a/2 fd|A2 FD|"G"G3/2G/2 Bd|"D"A3G|FA2F|"A"GE DC|\
"D"D2 "G"D3/2E/2|"D"D2 |

%%%%%%%% REELS MQ %%%%%%%%%%%

